X: 11490
T: Ed Reavy's
R: reel
M: 4/4
K: Gmajor
GBd^c d=ccA|E=F=FA dBcB|Add^c dgeg|fdcA dccA|
GBd^c d=ccA|E=F=FA dBcB|Add^c dgeg|fdcA BGBd||
fggf fede|fgag fdef|fgag fdeg|fdcA BGBd|
fggf fede|fgag fdef|fggf g2ag|fdcA dccA||

